icons/modern/ear-dark.svg

<svg width="32" height="32" viewBox="0 0 32 32" fill="none" xmlns="http://www.w3.org/2000/svg">
<path d="M6.7077 23.4306C6.7077 26.6719 9.28912 29.6103 12.5765 29.861C14.9454 29.861 17.0345 28.4869 18.0235 26.6415L23.7794 16.4512C24.736 14.9904 25.2923 13.2437 25.2923 11.3672C25.2923 6.23516 21.132 2.07486 16 2.07486C10.868 2.07486 6.7077 6.23516 6.7077 11.3672C6.7077 15.5753 6.7077 19.2232 6.7077 23.4306Z" fill="#51393B"/>
<g filter="url(#filter0_f_20020_4627)">
<ellipse cx="17.3385" cy="9.0805" rx="7.27983" ry="4.65166" transform="rotate(26.0872 17.3385 9.0805)" fill="url(#paint0_radial_20020_4627)"/>
</g>
<g filter="url(#filter1_f_20020_4627)">
<path d="M12.5765 28.7353C9.28912 28.4846 8.03125 26.6719 8.03125 23.4306V12.1728L10.375 12.0165L19.5625 21.1728L16.625 26.1415C15.636 27.9869 14.9454 28.7353 12.5765 28.7353Z" fill="url(#paint1_linear_20020_4627)"/>
<path d="M12.5765 28.7353C9.28912 28.4846 8.03125 26.6719 8.03125 23.4306V12.1728L10.375 12.0165L19.5625 21.1728L16.625 26.1415C15.636 27.9869 14.9454 28.7353 12.5765 28.7353Z" fill="url(#paint2_linear_20020_4627)"/>
</g>
<g filter="url(#filter2_f_20020_4627)">
<circle cx="11.9406" cy="22.3276" r="3.18584" fill="url(#paint3_linear_20020_4627)"/>
</g>
<circle cx="11.7548" cy="22.1418" r="3" fill="url(#paint4_linear_20020_4627)"/>
<circle cx="11.7548" cy="22.1418" r="3" fill="url(#paint5_radial_20020_4627)"/>
<g filter="url(#filter3_f_20020_4627)">
<circle cx="11.7548" cy="22.1417" r="2.56416" fill="#4E3538"/>
</g>
<g filter="url(#filter4_i_20020_4627)">
<path d="M18.167 22.6958C17.3026 22.2174 16.214 22.5251 15.7281 23.3854L14.8693 24.9058L14.8505 24.941C14.4849 25.623 13.6954 26.2571 12.7159 26.2571C11.461 26.2571 10.3077 24.8293 10.3077 23.4306V11.3672C10.3077 8.22338 12.8562 5.67486 16 5.67486C19.1438 5.67486 21.6923 8.22338 21.6923 11.3672C21.6923 11.671 21.6688 11.9685 21.6234 12.2584C21.4764 13.198 21.7492 14.2318 22.5662 14.7188C23.4656 15.2549 24.6496 14.9283 24.9368 13.9214C25.1683 13.1099 25.2923 12.253 25.2923 11.3672C25.2923 6.23516 21.132 2.07486 16 2.07486C10.868 2.07486 6.7077 6.23516 6.7077 11.3672V23.4306C6.7077 26.6719 9.28912 29.6103 12.5765 29.861C14.9454 29.861 17.0345 28.4869 18.0235 26.6415L18.8626 25.1559C19.3545 24.2851 19.0421 23.1802 18.167 22.6958Z" fill="url(#paint6_linear_20020_4627)"/>
<path d="M18.167 22.6958C17.3026 22.2174 16.214 22.5251 15.7281 23.3854L14.8693 24.9058L14.8505 24.941C14.4849 25.623 13.6954 26.2571 12.7159 26.2571C11.461 26.2571 10.3077 24.8293 10.3077 23.4306V11.3672C10.3077 8.22338 12.8562 5.67486 16 5.67486C19.1438 5.67486 21.6923 8.22338 21.6923 11.3672C21.6923 11.671 21.6688 11.9685 21.6234 12.2584C21.4764 13.198 21.7492 14.2318 22.5662 14.7188C23.4656 15.2549 24.6496 14.9283 24.9368 13.9214C25.1683 13.1099 25.2923 12.253 25.2923 11.3672C25.2923 6.23516 21.132 2.07486 16 2.07486C10.868 2.07486 6.7077 6.23516 6.7077 11.3672V23.4306C6.7077 26.6719 9.28912 29.6103 12.5765 29.861C14.9454 29.861 17.0345 28.4869 18.0235 26.6415L18.8626 25.1559C19.3545 24.2851 19.0421 23.1802 18.167 22.6958Z" fill="url(#paint7_radial_20020_4627)"/>
</g>
<path d="M18.167 22.6958C17.3026 22.2174 16.214 22.5251 15.7281 23.3854L14.8693 24.9058L14.8505 24.941C14.4849 25.623 13.6954 26.2571 12.7159 26.2571C11.461 26.2571 10.3077 24.8293 10.3077 23.4306V11.3672C10.3077 8.22338 12.8562 5.67486 16 5.67486C19.1438 5.67486 21.6923 8.22338 21.6923 11.3672C21.6923 11.671 21.6688 11.9685 21.6234 12.2584C21.4764 13.198 21.7492 14.2318 22.5662 14.7188C23.4656 15.2549 24.6496 14.9283 24.9368 13.9214C25.1683 13.1099 25.2923 12.253 25.2923 11.3672C25.2923 6.23516 21.132 2.07486 16 2.07486C10.868 2.07486 6.7077 6.23516 6.7077 11.3672V23.4306C6.7077 26.6719 9.28912 29.6103 12.5765 29.861C14.9454 29.861 17.0345 28.4869 18.0235 26.6415L18.8626 25.1559C19.3545 24.2851 19.0421 23.1802 18.167 22.6958Z" fill="url(#paint8_radial_20020_4627)"/>
<path d="M18.167 22.6958C17.3026 22.2174 16.214 22.5251 15.7281 23.3854L14.8693 24.9058L14.8505 24.941C14.4849 25.623 13.6954 26.2571 12.7159 26.2571C11.461 26.2571 10.3077 24.8293 10.3077 23.4306V11.3672C10.3077 8.22338 12.8562 5.67486 16 5.67486C19.1438 5.67486 21.6923 8.22338 21.6923 11.3672C21.6923 11.671 21.6688 11.9685 21.6234 12.2584C21.4764 13.198 21.7492 14.2318 22.5662 14.7188C23.4656 15.2549 24.6496 14.9283 24.9368 13.9214C25.1683 13.1099 25.2923 12.253 25.2923 11.3672C25.2923 6.23516 21.132 2.07486 16 2.07486C10.868 2.07486 6.7077 6.23516 6.7077 11.3672V23.4306C6.7077 26.6719 9.28912 29.6103 12.5765 29.861C14.9454 29.861 17.0345 28.4869 18.0235 26.6415L18.8626 25.1559C19.3545 24.2851 19.0421 23.1802 18.167 22.6958Z" fill="url(#paint9_radial_20020_4627)"/>
<path d="M18.167 22.6958C17.3026 22.2174 16.214 22.5251 15.7281 23.3854L14.8693 24.9058L14.8505 24.941C14.4849 25.623 13.6954 26.2571 12.7159 26.2571C11.461 26.2571 10.3077 24.8293 10.3077 23.4306V11.3672C10.3077 8.22338 12.8562 5.67486 16 5.67486C19.1438 5.67486 21.6923 8.22338 21.6923 11.3672C21.6923 11.671 21.6688 11.9685 21.6234 12.2584C21.4764 13.198 21.7492 14.2318 22.5662 14.7188C23.4656 15.2549 24.6496 14.9283 24.9368 13.9214C25.1683 13.1099 25.2923 12.253 25.2923 11.3672C25.2923 6.23516 21.132 2.07486 16 2.07486C10.868 2.07486 6.7077 6.23516 6.7077 11.3672V23.4306C6.7077 26.6719 9.28912 29.6103 12.5765 29.861C14.9454 29.861 17.0345 28.4869 18.0235 26.6415L18.8626 25.1559C19.3545 24.2851 19.0421 23.1802 18.167 22.6958Z" fill="url(#paint10_radial_20020_4627)"/>
<path d="M18.167 22.6958C17.3026 22.2174 16.214 22.5251 15.7281 23.3854L14.8693 24.9058L14.8505 24.941C14.4849 25.623 13.6954 26.2571 12.7159 26.2571C11.461 26.2571 10.3077 24.8293 10.3077 23.4306V11.3672C10.3077 8.22338 12.8562 5.67486 16 5.67486C19.1438 5.67486 21.6923 8.22338 21.6923 11.3672C21.6923 11.671 21.6688 11.9685 21.6234 12.2584C21.4764 13.198 21.7492 14.2318 22.5662 14.7188C23.4656 15.2549 24.6496 14.9283 24.9368 13.9214C25.1683 13.1099 25.2923 12.253 25.2923 11.3672C25.2923 6.23516 21.132 2.07486 16 2.07486C10.868 2.07486 6.7077 6.23516 6.7077 11.3672V23.4306C6.7077 26.6719 9.28912 29.6103 12.5765 29.861C14.9454 29.861 17.0345 28.4869 18.0235 26.6415L18.8626 25.1559C19.3545 24.2851 19.0421 23.1802 18.167 22.6958Z" fill="url(#paint11_radial_20020_4627)"/>
<path d="M18.167 22.6958C17.3026 22.2174 16.214 22.5251 15.7281 23.3854L14.8693 24.9058L14.8505 24.941C14.4849 25.623 13.6954 26.2571 12.7159 26.2571C11.461 26.2571 10.3077 24.8293 10.3077 23.4306V11.3672C10.3077 8.22338 12.8562 5.67486 16 5.67486C19.1438 5.67486 21.6923 8.22338 21.6923 11.3672C21.6923 11.671 21.6688 11.9685 21.6234 12.2584C21.4764 13.198 21.7492 14.2318 22.5662 14.7188C23.4656 15.2549 24.6496 14.9283 24.9368 13.9214C25.1683 13.1099 25.2923 12.253 25.2923 11.3672C25.2923 6.23516 21.132 2.07486 16 2.07486C10.868 2.07486 6.7077 6.23516 6.7077 11.3672V23.4306C6.7077 26.6719 9.28912 29.6103 12.5765 29.861C14.9454 29.861 17.0345 28.4869 18.0235 26.6415L18.8626 25.1559C19.3545 24.2851 19.0421 23.1802 18.167 22.6958Z" fill="url(#paint12_radial_20020_4627)"/>
<g filter="url(#filter5_f_20020_4627)">
<path d="M16.9398 3.57904C19.2315 3.95404 23.8586 6.01029 24.0336 11.2353" stroke="url(#paint13_linear_20020_4627)" stroke-width="2" stroke-linecap="round"/>
</g>
<g filter="url(#filter6_f_20020_4627)">
<path d="M9.19061 9.18719V23.8915C9.21245 24.7874 9.52394 27.3002 12.2531 27.9228C14.5503 28.4468 15.8781 27.2353 16.5285 26.0165L17.7531 23.8915" stroke="url(#paint14_linear_20020_4627)" stroke-width="1.5" stroke-linecap="round"/>
</g>
<defs>
<filter id="filter0_f_20020_4627" x="9.4859" y="2.81699" width="15.7051" height="12.527" filterUnits="userSpaceOnUse" color-interpolation-filters="sRGB">
<feFlood flood-opacity="0" result="BackgroundImageFix"/>
<feBlend mode="normal" in="SourceGraphic" in2="BackgroundImageFix" result="shape"/>
<feGaussianBlur stdDeviation="0.5" result="effect1_foregroundBlur_20020_4627"/>
</filter>
<filter id="filter1_f_20020_4627" x="7.53125" y="11.5165" width="12.5312" height="17.7188" filterUnits="userSpaceOnUse" color-interpolation-filters="sRGB">
<feFlood flood-opacity="0" result="BackgroundImageFix"/>
<feBlend mode="normal" in="SourceGraphic" in2="BackgroundImageFix" result="shape"/>
<feGaussianBlur stdDeviation="0.25" result="effect1_foregroundBlur_20020_4627"/>
</filter>
<filter id="filter2_f_20020_4627" x="8.00476" y="18.3918" width="7.8717" height="7.87167" filterUnits="userSpaceOnUse" color-interpolation-filters="sRGB">
<feFlood flood-opacity="0" result="BackgroundImageFix"/>
<feBlend mode="normal" in="SourceGraphic" in2="BackgroundImageFix" result="shape"/>
<feGaussianBlur stdDeviation="0.375" result="effect1_foregroundBlur_20020_4627"/>
</filter>
<filter id="filter3_f_20020_4627" x="8.69061" y="19.0776" width="6.12836" height="6.12833" filterUnits="userSpaceOnUse" color-interpolation-filters="sRGB">
<feFlood flood-opacity="0" result="BackgroundImageFix"/>
<feBlend mode="normal" in="SourceGraphic" in2="BackgroundImageFix" result="shape"/>
<feGaussianBlur stdDeviation="0.25" result="effect1_foregroundBlur_20020_4627"/>
</filter>
<filter id="filter4_i_20020_4627" x="6.7077" y="2.07486" width="19.0846" height="27.7861" filterUnits="userSpaceOnUse" color-interpolation-filters="sRGB">
<feFlood flood-opacity="0" result="BackgroundImageFix"/>
<feBlend mode="normal" in="SourceGraphic" in2="BackgroundImageFix" result="shape"/>
<feColorMatrix in="SourceAlpha" type="matrix" values="0 0 0 0 0 0 0 0 0 0 0 0 0 0 0 0 0 0 127 0" result="hardAlpha"/>
<feOffset dx="0.5"/>
<feGaussianBlur stdDeviation="1"/>
<feComposite in2="hardAlpha" operator="arithmetic" k2="-1" k3="1"/>
<feColorMatrix type="matrix" values="0 0 0 0 0.220833 0 0 0 0 0.142622 0 0 0 0 0.193629 0 0 0 1 0"/>
<feBlend mode="normal" in2="shape" result="effect1_innerShadow_20020_4627"/>
</filter>
<filter id="filter5_f_20020_4627" x="14.4397" y="1.07889" width="12.0939" height="12.6564" filterUnits="userSpaceOnUse" color-interpolation-filters="sRGB">
<feFlood flood-opacity="0" result="BackgroundImageFix"/>
<feBlend mode="normal" in="SourceGraphic" in2="BackgroundImageFix" result="shape"/>
<feGaussianBlur stdDeviation="0.75" result="effect1_foregroundBlur_20020_4627"/>
</filter>
<filter id="filter6_f_20020_4627" x="6.94061" y="6.93719" width="13.0626" height="23.361" filterUnits="userSpaceOnUse" color-interpolation-filters="sRGB">
<feFlood flood-opacity="0" result="BackgroundImageFix"/>
<feBlend mode="normal" in="SourceGraphic" in2="BackgroundImageFix" result="shape"/>
<feGaussianBlur stdDeviation="0.75" result="effect1_foregroundBlur_20020_4627"/>
</filter>
<radialGradient id="paint0_radial_20020_4627" cx="0" cy="0" r="1" gradientUnits="userSpaceOnUse" gradientTransform="translate(17.3385 13.7322) rotate(-90.1559) scale(8.19144 14.286)">
<stop offset="0.415385" stop-color="#2A1521" stop-opacity="0"/>
<stop offset="0.847781" stop-color="#2A1521"/>
</radialGradient>
<linearGradient id="paint1_linear_20020_4627" x1="12.875" y1="12.579" x2="10.1214" y2="18.1734" gradientUnits="userSpaceOnUse">
<stop stop-color="#18080B"/>
<stop offset="1" stop-color="#18080B" stop-opacity="0"/>
</linearGradient>
<linearGradient id="paint2_linear_20020_4627" x1="13.5625" y1="27.5165" x2="15.5625" y2="21.9228" gradientUnits="userSpaceOnUse">
<stop offset="0.218308" stop-color="#392828"/>
<stop offset="1" stop-color="#392828" stop-opacity="0"/>
</linearGradient>
<linearGradient id="paint3_linear_20020_4627" x1="14.5089" y1="20.4895" x2="12.2116" y2="24.5328" gradientUnits="userSpaceOnUse">
<stop offset="0.340362" stop-color="#5D4B49"/>
<stop offset="1" stop-color="#150706"/>
</linearGradient>
<linearGradient id="paint4_linear_20020_4627" x1="11.7548" y1="19.1418" x2="11.7548" y2="25.1418" gradientUnits="userSpaceOnUse">
<stop stop-color="#432A26"/>
<stop offset="0.9999" stop-color="#351920"/>
</linearGradient>
<radialGradient id="paint5_radial_20020_4627" cx="0" cy="0" r="1" gradientUnits="userSpaceOnUse" gradientTransform="translate(14.4644 20.9179) rotate(144.196) scale(2.59938 2.96851)">
<stop stop-color="#725A58"/>
<stop offset="1" stop-color="#65504E" stop-opacity="0"/>
</radialGradient>
<linearGradient id="paint6_linear_20020_4627" x1="11.5625" y1="31.5165" x2="20" y2="-0.858466" gradientUnits="userSpaceOnUse">
<stop stop-color="#462934"/>
<stop offset="1" stop-color="#56403D"/>
</linearGradient>
<radialGradient id="paint7_radial_20020_4627" cx="0" cy="0" r="1" gradientUnits="userSpaceOnUse" gradientTransform="translate(17.5 10.829) rotate(-55.1378) scale(6.77916 7.59028)">
<stop offset="0.478368" stop-color="#351C24"/>
<stop offset="1" stop-color="#351C24" stop-opacity="0"/>
</radialGradient>
<radialGradient id="paint8_radial_20020_4627" cx="0" cy="0" r="1" gradientUnits="userSpaceOnUse" gradientTransform="translate(23.2316 15.2663) rotate(-88.2242) scale(4.62696 6.13729)">
<stop offset="0.174469" stop-color="#51393B"/>
<stop offset="1" stop-color="#51393B" stop-opacity="0"/>
</radialGradient>
<radialGradient id="paint9_radial_20020_4627" cx="0" cy="0" r="1" gradientUnits="userSpaceOnUse" gradientTransform="translate(18.1129 22.8617) rotate(115.159) scale(4.97005 4.84669)">
<stop offset="0.241661" stop-color="#533B3D"/>
<stop offset="1" stop-color="#533B3D" stop-opacity="0"/>
</radialGradient>
<radialGradient id="paint10_radial_20020_4627" cx="0" cy="0" r="1" gradientUnits="userSpaceOnUse" gradientTransform="translate(22.625 26.454) rotate(-115.896) scale(26.3315 19.1931)">
<stop offset="0.953393" stop-color="#605654" stop-opacity="0"/>
<stop offset="1" stop-color="#605654"/>
</radialGradient>
<radialGradient id="paint11_radial_20020_4627" cx="0" cy="0" r="1" gradientUnits="userSpaceOnUse" gradientTransform="translate(14.5835 7.98215) rotate(98.1672) scale(22.103 17.2554)">
<stop offset="0.912279" stop-color="#432A42" stop-opacity="0"/>
<stop offset="1" stop-color="#432A42"/>
</radialGradient>
<radialGradient id="paint12_radial_20020_4627" cx="0" cy="0" r="1" gradientUnits="userSpaceOnUse" gradientTransform="translate(10.3437 22.1415) scale(2.09375 3.71875)">
<stop stop-color="#50373A"/>
<stop offset="1" stop-color="#50373A" stop-opacity="0"/>
</radialGradient>
<linearGradient id="paint13_linear_20020_4627" x1="24.9711" y1="11.2353" x2="17.5648" y2="3.42279" gradientUnits="userSpaceOnUse">
<stop stop-color="#634F4D" stop-opacity="0"/>
<stop offset="0.509619" stop-color="#634F4D"/>
<stop offset="1" stop-color="#634F4D" stop-opacity="0"/>
</linearGradient>
<linearGradient id="paint14_linear_20020_4627" x1="8.44062" y1="2.01653" x2="21.3793" y2="24.1214" gradientUnits="userSpaceOnUse">
<stop stop-color="#634F4D" stop-opacity="0"/>
<stop offset="0.69801" stop-color="#6F5552"/>
</linearGradient>
</defs>
</svg>

<svg width="32" height="32" fill="none" xmlns="http://www.w3.org/2000/svg"><path d="M6.708 23.43c0 3.242 2.581 6.18 5.868 6.431 2.37 0 4.459-1.374 5.447-3.22l5.756-10.19a9.292 9.292 0 1 0-17.072-5.084v12.064Z" fill="#51393B"/><g filter="url(#a)"><ellipse cx="17.338" cy="9.081" rx="7.28" ry="4.652" transform="rotate(26.087 17.338 9.08)" fill="url(#b)"/></g><g filter="url(#c)"><path d="M12.576 28.735c-3.287-.25-4.545-2.063-4.545-5.304V12.173l2.344-.156 9.188 9.156-2.938 4.969c-.989 1.845-1.68 2.593-4.049 2.593Z" fill="url(#d)"/><path d="M12.576 28.735c-3.287-.25-4.545-2.063-4.545-5.304V12.173l2.344-.156 9.188 9.156-2.938 4.969c-.989 1.845-1.68 2.593-4.049 2.593Z" fill="url(#e)"/></g><g filter="url(#f)"><circle cx="11.941" cy="22.328" r="3.186" fill="url(#g)"/></g><circle cx="11.755" cy="22.142" r="3" fill="url(#h)"/><circle cx="11.755" cy="22.142" r="3" fill="url(#i)"/><g filter="url(#j)"><circle cx="11.755" cy="22.142" r="2.564" fill="#4E3538"/></g><g filter="url(#k)"><path d="M18.167 22.696a1.8 1.8 0 0 0-2.439.69l-.859 1.52-.018.035c-.366.682-1.156 1.316-2.135 1.316-1.255 0-2.408-1.428-2.408-2.826V11.367a5.692 5.692 0 1 1 11.315.891c-.147.94.126 1.974.943 2.46.9.537 2.084.21 2.37-.797a9.292 9.292 0 1 0-18.23-2.554v12.064c.002 3.24 2.583 6.18 5.87 6.43 2.37 0 4.459-1.374 5.447-3.22l.84-1.485a1.8 1.8 0 0 0-.696-2.46Z" fill="url(#l)"/><path d="M18.167 22.696a1.8 1.8 0 0 0-2.439.69l-.859 1.52-.018.035c-.366.682-1.156 1.316-2.135 1.316-1.255 0-2.408-1.428-2.408-2.826V11.367a5.692 5.692 0 1 1 11.315.891c-.147.94.126 1.974.943 2.46.9.537 2.084.21 2.37-.797a9.292 9.292 0 1 0-18.23-2.554v12.064c.002 3.24 2.583 6.18 5.87 6.43 2.37 0 4.459-1.374 5.447-3.22l.84-1.485a1.8 1.8 0 0 0-.696-2.46Z" fill="url(#m)"/></g><path d="M18.167 22.696a1.8 1.8 0 0 0-2.439.69l-.859 1.52-.018.035c-.366.682-1.156 1.316-2.135 1.316-1.255 0-2.408-1.428-2.408-2.826V11.367a5.692 5.692 0 1 1 11.315.891c-.147.94.126 1.974.943 2.46.9.537 2.084.21 2.37-.797a9.292 9.292 0 1 0-18.23-2.554v12.064c.002 3.24 2.583 6.18 5.87 6.43 2.37 0 4.459-1.374 5.447-3.22l.84-1.485a1.8 1.8 0 0 0-.696-2.46Z" fill="url(#n)"/><path d="M18.167 22.696a1.8 1.8 0 0 0-2.439.69l-.859 1.52-.018.035c-.366.682-1.156 1.316-2.135 1.316-1.255 0-2.408-1.428-2.408-2.826V11.367a5.692 5.692 0 1 1 11.315.891c-.147.94.126 1.974.943 2.46.9.537 2.084.21 2.37-.797a9.292 9.292 0 1 0-18.23-2.554v12.064c.002 3.24 2.583 6.18 5.87 6.43 2.37 0 4.459-1.374 5.447-3.22l.84-1.485a1.8 1.8 0 0 0-.696-2.46Z" fill="url(#o)"/><path d="M18.167 22.696a1.8 1.8 0 0 0-2.439.69l-.859 1.52-.018.035c-.366.682-1.156 1.316-2.135 1.316-1.255 0-2.408-1.428-2.408-2.826V11.367a5.692 5.692 0 1 1 11.315.891c-.147.94.126 1.974.943 2.46.9.537 2.084.21 2.37-.797a9.292 9.292 0 1 0-18.23-2.554v12.064c.002 3.24 2.583 6.18 5.87 6.43 2.37 0 4.459-1.374 5.447-3.22l.84-1.485a1.8 1.8 0 0 0-.696-2.46Z" fill="url(#p)"/><path d="M18.167 22.696a1.8 1.8 0 0 0-2.439.69l-.859 1.52-.018.035c-.366.682-1.156 1.316-2.135 1.316-1.255 0-2.408-1.428-2.408-2.826V11.367a5.692 5.692 0 1 1 11.315.891c-.147.94.126 1.974.943 2.46.9.537 2.084.21 2.37-.797a9.292 9.292 0 1 0-18.23-2.554v12.064c.002 3.24 2.583 6.18 5.87 6.43 2.37 0 4.459-1.374 5.447-3.22l.84-1.485a1.8 1.8 0 0 0-.696-2.46Z" fill="url(#q)"/><path d="M18.167 22.696a1.8 1.8 0 0 0-2.439.69l-.859 1.52-.018.035c-.366.682-1.156 1.316-2.135 1.316-1.255 0-2.408-1.428-2.408-2.826V11.367a5.692 5.692 0 1 1 11.315.891c-.147.94.126 1.974.943 2.46.9.537 2.084.21 2.37-.797a9.292 9.292 0 1 0-18.23-2.554v12.064c.002 3.24 2.583 6.18 5.87 6.43 2.37 0 4.459-1.374 5.447-3.22l.84-1.485a1.8 1.8 0 0 0-.696-2.46Z" fill="url(#r)"/><g filter="url(#s)"><path d="M16.94 3.579c2.291.375 6.919 2.431 7.094 7.656" stroke="url(#t)" stroke-width="2" stroke-linecap="round"/></g><g filter="url(#u)"><path d="M9.19 9.187v14.705c.022.895.334 3.408 3.063 4.03 2.297.525 3.625-.687 4.276-1.905l1.224-2.125" stroke="url(#v)" stroke-width="1.5" stroke-linecap="round"/></g><defs><radialGradient id="b" cx="0" cy="0" r="1" gradientUnits="userSpaceOnUse" gradientTransform="rotate(-90.156 15.517 -1.78) scale(8.19144 14.286)"><stop offset=".415" stop-color="#2A1521" stop-opacity="0"/><stop offset=".848" stop-color="#2A1521"/></radialGradient><radialGradient id="i" cx="0" cy="0" r="1" gradientUnits="userSpaceOnUse" gradientTransform="matrix(-2.10816 1.52067 -1.73662 -2.40753 14.464 20.918)"><stop stop-color="#725A58"/><stop offset="1" stop-color="#65504E" stop-opacity="0"/></radialGradient><radialGradient id="m" cx="0" cy="0" r="1" gradientUnits="userSpaceOnUse" gradientTransform="matrix(3.875 -5.5625 6.22805 4.33864 17.5 10.829)"><stop offset=".478" stop-color="#351C24"/><stop offset="1" stop-color="#351C24" stop-opacity="0"/></radialGradient><radialGradient id="n" cx="0" cy="0" r="1" gradientUnits="userSpaceOnUse" gradientTransform="matrix(.14338 -4.62474 6.13434 .19019 23.232 15.266)"><stop offset=".174" stop-color="#51393B"/><stop offset="1" stop-color="#51393B" stop-opacity="0"/></radialGradient><radialGradient id="o" cx="0" cy="0" r="1" gradientUnits="userSpaceOnUse" gradientTransform="rotate(115.159 1.796 17.183) scale(4.97005 4.84669)"><stop offset=".242" stop-color="#533B3D"/><stop offset="1" stop-color="#533B3D" stop-opacity="0"/></radialGradient><radialGradient id="p" cx="0" cy="0" r="1" gradientUnits="userSpaceOnUse" gradientTransform="rotate(-115.896 19.594 6.144) scale(26.3315 19.1931)"><stop offset=".953" stop-color="#605654" stop-opacity="0"/><stop offset="1" stop-color="#605654"/></radialGradient><radialGradient id="q" cx="0" cy="0" r="1" gradientUnits="userSpaceOnUse" gradientTransform="matrix(-3.14 21.87883 -17.0804 -2.45134 14.584 7.982)"><stop offset=".912" stop-color="#432A42" stop-opacity="0"/><stop offset="1" stop-color="#432A42"/></radialGradient><radialGradient id="r" cx="0" cy="0" r="1" gradientUnits="userSpaceOnUse" gradientTransform="matrix(2.09375 0 0 3.71875 10.344 22.142)"><stop stop-color="#50373A"/><stop offset="1" stop-color="#50373A" stop-opacity="0"/></radialGradient><linearGradient id="d" x1="12.875" y1="12.579" x2="10.121" y2="18.173" gradientUnits="userSpaceOnUse"><stop stop-color="#18080B"/><stop offset="1" stop-color="#18080B" stop-opacity="0"/></linearGradient><linearGradient id="e" x1="13.563" y1="27.517" x2="15.563" y2="21.923" gradientUnits="userSpaceOnUse"><stop offset=".218" stop-color="#392828"/><stop offset="1" stop-color="#392828" stop-opacity="0"/></linearGradient><linearGradient id="g" x1="14.509" y1="20.489" x2="12.212" y2="24.533" gradientUnits="userSpaceOnUse"><stop offset=".34" stop-color="#5D4B49"/><stop offset="1" stop-color="#150706"/></linearGradient><linearGradient id="h" x1="11.755" y1="19.142" x2="11.755" y2="25.142" gradientUnits="userSpaceOnUse"><stop stop-color="#432A26"/><stop offset="1" stop-color="#351920"/></linearGradient><linearGradient id="l" x1="11.563" y1="31.517" x2="20" y2="-.858" gradientUnits="userSpaceOnUse"><stop stop-color="#462934"/><stop offset="1" stop-color="#56403D"/></linearGradient><linearGradient id="t" x1="24.971" y1="11.235" x2="17.565" y2="3.423" gradientUnits="userSpaceOnUse"><stop stop-color="#634F4D" stop-opacity="0"/><stop offset=".51" stop-color="#634F4D"/><stop offset="1" stop-color="#634F4D" stop-opacity="0"/></linearGradient><linearGradient id="v" x1="8.441" y1="2.017" x2="21.379" y2="24.121" gradientUnits="userSpaceOnUse"><stop stop-color="#634F4D" stop-opacity="0"/><stop offset=".698" stop-color="#6F5552"/></linearGradient><filter id="a" x="9.486" y="2.817" width="15.705" height="12.527" filterUnits="userSpaceOnUse" color-interpolation-filters="sRGB"><feFlood flood-opacity="0" result="BackgroundImageFix"/><feBlend in="SourceGraphic" in2="BackgroundImageFix" result="shape"/><feGaussianBlur stdDeviation=".5" result="effect1_foregroundBlur_20020_4627"/></filter><filter id="c" x="7.531" y="11.517" width="12.531" height="17.719" filterUnits="userSpaceOnUse" color-interpolation-filters="sRGB"><feFlood flood-opacity="0" result="BackgroundImageFix"/><feBlend in="SourceGraphic" in2="BackgroundImageFix" result="shape"/><feGaussianBlur stdDeviation=".25" result="effect1_foregroundBlur_20020_4627"/></filter><filter id="f" x="8.005" y="18.392" width="7.872" height="7.872" filterUnits="userSpaceOnUse" color-interpolation-filters="sRGB"><feFlood flood-opacity="0" result="BackgroundImageFix"/><feBlend in="SourceGraphic" in2="BackgroundImageFix" result="shape"/><feGaussianBlur stdDeviation=".375" result="effect1_foregroundBlur_20020_4627"/></filter><filter id="j" x="8.691" y="19.078" width="6.128" height="6.128" filterUnits="userSpaceOnUse" color-interpolation-filters="sRGB"><feFlood flood-opacity="0" result="BackgroundImageFix"/><feBlend in="SourceGraphic" in2="BackgroundImageFix" result="shape"/><feGaussianBlur stdDeviation=".25" result="effect1_foregroundBlur_20020_4627"/></filter><filter id="k" x="6.708" y="2.075" width="19.085" height="27.786" filterUnits="userSpaceOnUse" color-interpolation-filters="sRGB"><feFlood flood-opacity="0" result="BackgroundImageFix"/><feBlend in="SourceGraphic" in2="BackgroundImageFix" result="shape"/><feColorMatrix in="SourceAlpha" values="0 0 0 0 0 0 0 0 0 0 0 0 0 0 0 0 0 0 127 0" result="hardAlpha"/><feOffset dx=".5"/><feGaussianBlur stdDeviation="1"/><feComposite in2="hardAlpha" operator="arithmetic" k2="-1" k3="1"/><feColorMatrix values="0 0 0 0 0.220833 0 0 0 0 0.142622 0 0 0 0 0.193629 0 0 0 1 0"/><feBlend in2="shape" result="effect1_innerShadow_20020_4627"/></filter><filter id="s" x="14.44" y="1.079" width="12.094" height="12.656" filterUnits="userSpaceOnUse" color-interpolation-filters="sRGB"><feFlood flood-opacity="0" result="BackgroundImageFix"/><feBlend in="SourceGraphic" in2="BackgroundImageFix" result="shape"/><feGaussianBlur stdDeviation=".75" result="effect1_foregroundBlur_20020_4627"/></filter><filter id="u" x="6.941" y="6.937" width="13.063" height="23.361" filterUnits="userSpaceOnUse" color-interpolation-filters="sRGB"><feFlood flood-opacity="0" result="BackgroundImageFix"/><feBlend in="SourceGraphic" in2="BackgroundImageFix" result="shape"/><feGaussianBlur stdDeviation=".75" result="effect1_foregroundBlur_20020_4627"/></filter></defs></svg>
